!!!COM: YUI
!!!OTL: SUMMER SONG
**kern	**kern	**kern	**kern	**kern	**kern
*part6	*part5	*part4	*part3	*part2	*part1
*staff6	*staff5	*staff4	*staff3	*staff2	*staff1
*I"ドラムセット	*I"ピアノ	*I"ピアノ	*I"ピアノ	*I"ピアノ	*I"Melody
*I'Drs.	*I'Pno.	*I'Pno.	*I'Pno.	*I'Pno.	*I'Melody
*clefX	*clefF4	*clefG2	*clefG2	*clefG2	*clefG2
*k[]	*k[b-e-a-d-]	*k[b-e-a-d-]	*k[b-e-a-d-]	*k[b-e-a-d-]	*k[b-e-a-d-]
*M4/4	*M4/4	*M4/4	*M4/4	*M4/4	*M4/4
*MM110	*MM110	*MM110	*MM110	*MM110	*MM110
=1	=1	=1	=1	=1	=1
1r	1r	1r	1r	2.r	1r
.	.	.	.	8r	.
.	.	.	.	8cc	.
=2	=2	=2	=2	=2	=2
1r	4AA-	1c	1e-	8.ccL	1r
.	.	.	.	[16b-Jk	.
.	8.AA-L	.	.	8b-L]	.
.	.	.	.	[8a-J	.
.	[16AA-Jk	.	.	.	.
.	16AA-LL]	.	.	4a-]	.
.	16AA-J	.	.	.	.
.	[8AA-J	.	.	.	.
.	8AA-L]	.	.	8b-L	.
.	8AA-J	.	.	8a-J	.
=3	=3	=3	=3	=3	=3
1r	4D-	4.d-	8r	2.a-	1r
.	.	.	8f	.	.
.	8D-L	.	4a-	.	.
.	[8CJ	[8c	.	.	.
.	8CL]	4c]	8e-	.	.
.	8CJ	.	4a-	.	.
.	4BB-	4B-	.	8r	.
.	.	.	8a-	8cc	.
=4	=4	=4	=4	=4	=4
1r	4AA-	1c	1e-	8.ccL	1r
.	.	.	.	[16b-Jk	.
.	8E-L	.	.	8b-L]	.
.	[8A-J	.	.	[8a-J	.
.	4A-]	.	.	4a-]	.
.	8A-L	.	.	8ee-L	.
.	8E-J	.	.	[8dd-J	.
=5	=5	=5	=5	=5	=5
1r	4D-	4.d-	4.f	8dd-]	1r
.	.	.	.	4cc	.
.	8D-L	.	.	.	.
.	[8CJ	[8c	8e-	[8a-	.
.	8CL]	4c]	4e-	8a-L]	.
.	8CJ	.	.	8a-	.
.	4D-	4B-	4d-	8b-	.
.	.	.	.	[8a-J	.
=6	=6	=6	=6	=6	=6
1r	8AA-L	1r	1r	2a-]	8r
.	8AA-J	.	.	.	8e-L
.	8AA-L	.	.	.	8e-
.	16AA-L	.	.	.	8fJ
.	16GGJJ	.	.	.	.
.	8AA-L	.	.	2r	8e-
.	8AA-	.	.	.	4.e-
.	8AA-	.	.	.	.
.	8AA-J	.	.	.	.
=7	=7	=7	=7	=7	=7
1r	8E-L	1r	1r	1r	8r
.	8E-J	.	.	.	8e-
.	8E-L	.	.	.	8e-L
.	16E-L	.	.	.	16e-L
.	16DnJJ	.	.	.	[16fJJ
.	8E-L	.	.	.	8f]
.	8E-	.	.	.	4a-
.	8E-	.	.	.	.
.	8E-J	.	.	.	8c
=8	=8	=8	=8	=8	=8
1r	8D-L	1r	1r	1r	8d-L
.	8D-J	.	.	.	8c
.	8D-L	.	.	.	8d-
.	16D-L	.	.	.	8cJ
.	16CJJ	.	.	.	.
.	8D-L	.	.	.	4e-
.	8D-	.	.	.	.
.	8D-	.	.	.	8cL
.	8D-J	.	.	.	[8d-J
=9	=9	=9	=9	=9	=9
1r	8D-L	1r	8r	1r	8d-L]
.	8D-J	.	8a-L	.	8c
.	16CKL	.	8a-	.	8d-
.	8D-	.	.	.	.
.	.	.	8e-J	.	8cJ
.	[16D-Jk	.	.	.	.
.	16D-LL]	.	8e-L	.	8A-L
.	16D-J	.	.	.	.
.	8D-J	.	[8f	.	[8B-
.	4E-	.	8f]	.	8B-]
.	.	.	8e-J	.	8cJ
=10	=10	=10	=10	=10	=10
1r	8AA-L	1A-	1c	1e-	8r
.	8AA-J	.	.	.	8e-
.	8AA-L	.	.	.	8e-L
.	16AA-L	.	.	.	16e-L
.	[16AA-JJ	.	.	.	[16fJJ
.	16AA-LL]	.	.	.	8f]
.	16AA-J	.	.	.	.
.	8GGJ	.	.	.	4.e-
.	8D-L	.	.	.	.
.	8DnJ	.	.	.	.
=11	=11	=11	=11	=11	=11
1r	8E-L	1B-	1f	1g	8r
.	8E-J	.	.	.	8e-
.	8E-L	.	.	.	8e-L
.	16E-L	.	.	.	16e-L
.	16DnJJ	.	.	.	16fJJ
.	8E-L	.	.	.	8f
.	8E-	.	.	.	4a-
.	8E-	.	.	.	.
.	8E-J	.	.	.	8c
=12	=12	=12	=12	=12	=12
1r	8D-L	1A-	1d-	1f	8d-L
.	8D-J	.	.	.	8c
.	8D-L	.	.	.	8d-
.	16CL	.	.	.	8cJ
.	[16D-JJ	.	.	.	.
.	16D-LL]	.	.	.	4e-
.	16D-J	.	.	.	.
.	8D-J	.	.	.	.
.	8D-L	.	.	.	8cL
.	8D-J	.	.	.	[8d-J
=13	=13	=13	=13	=13	=13
1r	8D-L	4A-	4d-	4f	8d-]
.	16D-L	.	.	.	4e-
.	16D-JJ	.	.	.	.
.	8D-L	4r	4r	4r	.
.	8D-J	.	.	.	8e-
.	8D-L	8r	8r	8r	8e-L
.	16FL	8d-	8e-	8f	8f
.	16GJJ	.	.	.	.
.	4A-	16r	16r	16r	8e-
.	.	[16d-KL	[16e-KL	[16fKL	.
.	.	8d-J]	8e-J]	8fJ]	8e-J
=14	=14	=14	=14	=14	=14
1r	8FFL	8cL	8fL	8a-L	8r
.	8FFJ	8cJ	8fJ	8a-J	8a-L
.	4r	4r	4r	4r	8a-
.	.	.	.	.	8b-J
.	8D-L	8d-L	8fL	8a-L	8b-L
.	8D-J	8d-J	8fJ	8a-J	8a-
.	4r	4r	4r	4r	8a-
.	.	.	.	.	[8ccJ
=15	=15	=15	=15	=15	=15
1r	8AA-L	8cL	8e-L	8a-L	8ccL]
.	8AA-J	8cJ	8e-J	8a-J	8a-
.	4r	4r	4r	4r	8a-
.	.	.	.	.	8ccJ
.	8E-L	8d-L	8fL	8gL	8b-L
.	8E-J	8d-J	8fJ	8gJ	8a-J
.	16r	16r	16r	16r	16a-KL
.	8.E-	8.d-	8.f	8.g	8.b-J
=16	=16	=16	=16	=16	=16
1r	8FFL	8cL	8fL	8a-L	8r
.	8FFJ	8cJ	8fJ	8a-J	8a-L
.	4r	4r	4r	4r	8a-
.	.	.	.	.	8b-J
.	8D-L	8d-L	8fL	8a-L	8b-L
.	8D-J	8d-J	8fJ	8a-J	8a-
.	4r	4r	4r	4r	8a-
.	.	.	.	.	[8ccJ
=17	=17	=17	=17	=17	=17
1r	8AA-L	8cL	8e-L	8a-L	8cc]
.	8AA-J	8cJ	8e-J	8a-J	4a-
.	4r	4r	4r	4r	.
.	.	.	.	.	8ee-
.	8E-L	8d-L	8fL	8gL	8dd-L
.	8E-J	8d-J	8fJ	8gJ	8ccJ
.	16r	16r	16r	16r	16b-KL
.	8.E-	8.d-	8.f	8.b-	8.a-J
=18	=18	=18	=18	=18	=18
1r	8FFL	2c	2e-	2a-	8r
.	8FF	.	.	.	8ee-L
.	8FF	.	.	.	8ee-
.	8FFJ	.	.	.	8ffJ
.	8D-L	2c	2f	2a-	4ee-
.	8D-	.	.	.	.
.	8D-	.	.	.	16ccLL
.	.	.	.	.	16b-J
.	8D-J	.	.	.	8a-J
=19	=19	=19	=19	=19	=19
1r	8AA-L	2c	2e-	2a-	8r
.	8AA-J	.	.	.	8ee-L
.	8AA-L	.	.	.	8ee-
.	16AA-L	.	.	.	8ffJ
.	16DnJJ	.	.	.	.
.	8E-L	2e-	2g	2b-	4ee-
.	8E-J	.	.	.	.
.	16DLL	.	.	.	16ccLL
.	16E-J	.	.	.	16b-
.	8E-J	.	.	.	16a-
.	.	.	.	.	16a-JJ
=20	=20	=20	=20	=20	=20
1r	8GG-XL	1d-	1g-X	1b-	8b-L
.	8GG-J	.	.	.	8a-
.	8GG-L	.	.	.	8a-
.	16GG-L	.	.	.	8cc-XJ
.	16FFJJ	.	.	.	.
.	16GG-LL	.	.	.	8b-L
.	16GG-J	.	.	.	.
.	8GG-J	.	.	.	8a-J
.	8GG-L	.	.	.	[4b-
.	8GG-J	.	.	.	.
=21	=21	=21	=21	=21	=21
1r	16E-LL	1e-	1g	1b-	1b-]
.	16E-	.	.	.	.
.	16E-	.	.	.	.
.	16E-JJ	.	.	.	.
.	8E-L	.	.	.	.
.	16E-L	.	.	.	.
.	[16D-JJ	.	.	.	.
.	16D-LL]	.	.	.	.
.	16D-J	.	.	.	.
.	8DnJ	.	.	.	.
.	4E-	.	.	.	.
=22	=22	=22	=22	=22	=22
1r	1r	1r	16r	16r	1r
.	.	.	8e-L	8gL	.
.	.	.	16e-Jk	16gJk	.
.	.	.	8gL	8b-L	.
.	.	.	16gL	16b-L	.
.	.	.	[16a-JJ	[16ccJJ	.
.	.	.	8a-L]	8ccL]	.
.	.	.	8a-J	8ccJ	.
.	.	.	4g	4b-	.
=23	=23	=23	=23	=23	=23
1r	8AA-L	4e-	4a-	4cc	4.a-
.	8AA-J	.	.	.	.
.	8AA-L	[8e-L	[8a-L	[8ccL	.
.	16AA-L	16e-L]	16a-L]	16ccL]	16a-LL
.	[16E-JJ	16d-JJ	16gJJ	16b-JJ	[16gJJ
.	16E-LL]	16r	16r	16r	16gKL]
.	16E-J	16d-KL	16gKL	16b-KL	8f
.	8E-J	8d-J	8gJ	8b-J	.
.	.	.	.	.	[16e-Jk
.	16DnLL	4d-	4g	4b-	16e-KL]
.	16E-J	.	.	.	8d-
.	8E-J	.	.	.	.
.	.	.	.	.	16cJk
=24	=24	=24	=24	=24	=24
1r	8BB-L	4d-	4g	4b-	8r
.	8BB-J	.	.	.	8b-
.	8BB-L	[8d-L	[8gL	[8b-L	8.b-L
.	16BB-L	16d-L]	16gL]	16b-L]	.
.	[16D-JJ	16fJJ	16a-JJ	16dd-JJ	16a-Jk
.	16D-LL]	16r	16r	16r	8b-L
.	16D-J	16fKL	16a-KL	16dd-KL	.
.	8D-J	8fJ	8a-J	8dd-J	16ccL
.	.	.	.	.	[16b-JJ
.	16CKL	4f	4a-	4dd-	16b-KL]
.	8.D-J	.	.	.	8.a-J
=25	=25	=25	=25	=25	=25
1r	8AA-L	4e-	4a-	4cc	8ee-L
.	8AA-J	.	.	.	16ee-L
.	.	.	.	.	[16ee-JJ
.	8AA-L	[8e-L	[8a-L	[8ccL	16ee-KL]
.	.	.	.	.	8a-
.	16AA-L	16e-L]	16a-L]	16ccL]	.
.	[16E-JJ	16d-JJ	16gJJ	16b-JJ	16a-Jk
.	16E-LL]	16r	16r	16r	8ee-L
.	16E-J	16d-KL	16gKL	16b-KL	.
.	8E-J	8d-J	8gJ	8b-J	16ee-L
.	.	.	.	.	[16ee-JJ
.	16DnLL	4d-	4g	4b-	16ee-KL]
.	16E-J	.	.	.	8a-
.	8E-J	.	.	.	.
.	.	.	.	.	16a-Jk
=26	=26	=26	=26	=26	=26
1r	8BB-L	2d-	2g	2b-	16ee-KL
.	.	.	.	.	8ee-
.	8BB-J	.	.	.	.
.	.	.	.	.	[16ee-Jk
.	8BB-L	.	.	.	16ee-KL]
.	.	.	.	.	8cc
.	16BB-L	.	.	.	.
.	[16D-JJ	.	.	.	16ccJk
.	8D-L]	4B-	4f	[8ee-L	16b-KL
.	.	.	.	.	8a-
.	8D-J	.	.	16ee-L]	.
.	.	.	.	[16dd-JJ	16a-Jk
.	16r	16r	16r	8dd-L]	4r
.	8.D-	8.d-	8.g	.	.
.	.	.	.	16ccL	.
.	.	.	.	16dd-JJ	.
=27	=27	=27	=27	=27	=27
1r	8AA-L	4e-	4a-	2cc	4.a-
.	8AA-J	.	.	.	.
.	8AA-L	[8e-L	[8a-L	.	.
.	16AA-L	16e-L]	16a-L]	.	16a-LL
.	[16E-JJ	16d-JJ	16gJJ	.	[16gJJ
.	16E-LL]	16r	16r	16r	16gKL]
.	16E-J	16d-KL	16gKL	16b-KL	8f
.	8E-J	8d-J	8gJ	8b-J	.
.	.	.	.	.	[16gJk
.	16DnLL	4d-	4g	4b-	16gKL]
.	16E-J	.	.	.	8b-
.	8E-J	.	.	.	.
.	.	.	.	.	16a-Jk
=28	=28	=28	=28	=28	=28
1r	8BB-L	4d-	4g	4b-	8r
.	8BB-J	.	.	.	8b-
.	8BB-L	[8d-L	[8gL	[8b-L	8.b-L
.	16BB-L	16d-L]	16gL]	16b-L]	.
.	[16D-JJ	16fJJ	16a-JJ	16dd-JJ	16a-Jk
.	16D-LL]	16r	16r	16r	8b-L
.	16D-J	16fKL	16a-KL	16dd-KL	.
.	8D-J	8fJ	8a-J	8dd-J	16ccL
.	.	.	.	.	[16b-JJ
.	16CLL	4f	4a-	4dd-	16b-KL]
.	16D-J	.	.	.	8a-
.	8D-J	.	.	.	.
.	.	.	.	.	16e-Jk
=29	=29	=29	=29	=29	=29
1r	8AA-L	4e-	4a-	4cc	8ee-L
.	8AA-J	.	.	.	16ee-L
.	.	.	.	.	[16ee-JJ
.	8AA-L	[8e-L	[8a-L	[8ccL	16ee-KL]
.	.	.	.	.	8a-
.	16AA-L	16e-L]	16a-L]	16ccL]	.
.	[16E-JJ	16d-JJ	16gJJ	16b-JJ	16a-Jk
.	16E-LL]	16r	16r	16r	8ee-L
.	16E-J	16d-KL	16gKL	16b-KL	.
.	8E-J	8d-J	8gJ	8b-J	16ee-L
.	.	.	.	.	[16ee-JJ
.	16DnLL	4d-	4g	4b-	16ee-KL]
.	16E-J	.	.	.	8a-
.	8E-J	.	.	.	.
.	.	.	.	.	16a-Jk
=30	=30	=30	=30	=30	=30
1r	8BB-L	2d-	2g	2b-	8ee-L
.	8BB-J	.	.	.	16ee-L
.	.	.	.	.	[16ee-JJ
.	8BB-L	.	.	.	16ee-KL]
.	.	.	.	.	8cc
.	16BB-L	.	.	.	.
.	[16D-JJ	.	.	.	[16b-Jk
.	8D-L]	4B-	4f	4a-	16b-KL]
.	.	.	.	.	8a-
.	8CJ	.	.	.	.
.	.	.	.	.	[16a-Jk
.	4D-	4d-	4g	4b-	16a-LL]
.	.	.	.	.	16b-J
.	.	.	.	.	8a-J
=31	=31	=31	=31	=31	=31
1r	2.D-	2.f	2.a-	2.dd-	4r
.	.	.	.	.	8b-L
.	.	.	.	.	16ccL
.	.	.	.	.	16b-JJ
.	.	.	.	.	16r
.	.	.	.	.	[8.a-
.	4BB-	4r	4r	4r	4a-]
=32	=32	=32	=32	=32	=32
1r	4D-	4.d-	4.f	1r	1r
.	8D-L	.	.	.	.
.	[8CJ	[8e-	[8g	.	.
.	8CL]	4e-]	4g]	.	.
.	8CJ	.	.	.	.
.	4D-	4d-	4f	.	.
=33	=33	=33	=33	=33	=33
1r	8AA-L	1A-	1c	1e-	8r
.	8AA-J	.	.	.	8e-
.	8AA-L	.	.	.	8e-L
.	16AA-L	.	.	.	16e-L
.	16GGJJ	.	.	.	[16fJJ
.	8AA-L	.	.	.	8f]
.	8AA-	.	.	.	4.e-
.	8AA-	.	.	.	.
.	8AA-J	.	.	.	.
=34	=34	=34	=34	=34	=34
1r	8E-L	1B-	1f	1g	8r
.	8E-J	.	.	.	8e-
.	8E-L	.	.	.	8e-L
.	16E-L	.	.	.	16e-L
.	16DnJJ	.	.	.	[16fJJ
.	8E-L	.	.	.	8f]
.	8E-	.	.	.	4a-
.	8E-	.	.	.	.
.	8E-J	.	.	.	8c
=35	=35	=35	=35	=35	=35
1r	8D-L	1A-	1d-	1f	8d-L
.	8D-J	.	.	.	8c
.	8D-L	.	.	.	8d-
.	16D-L	.	.	.	8cJ
.	[16D-JJ	.	.	.	.
.	16D-LL]	.	.	.	4e-
.	16D-J	.	.	.	.
.	8D-J	.	.	.	.
.	8D-L	.	.	.	8cL
.	8D-J	.	.	.	[8d-J
=36	=36	=36	=36	=36	=36
1r	16D-KL	1A-	8r	1f	8d-L]
.	8D-	.	.	.	.
.	.	.	8a-L	.	8c
.	16D-Jk	.	.	.	.
.	8D-L	.	8a-	.	8d-
.	8D-J	.	8e-J	.	8cJ
.	8D-L	.	8e-L	.	8A-L
.	8FF	.	[8f	.	[8B-
.	8GG-X	.	8f]	.	8B-]
.	8GGnJ	.	8e-J	.	8cJ
=37	=37	=37	=37	=37	=37
1r	8AA-L	[2A-	[2c	[2e-	8r
.	8AA-J	.	.	.	4e-
.	8AA-L	.	.	.	.
.	16AA-L	.	.	.	16e-LL
.	[16AA-JJ	.	.	.	[16fJJ
.	16AA-LL]	8A-L]	8cL]	8e-L]	8f]
.	16AA-J	.	.	.	.
.	8BB-J	8A-J	8cJ	8e-J	4.e-
.	8CL	16r	16r	16r	.
.	.	[16A-KL	[16cKL	[16e-KL	.
.	8D-J	8A-J]	8cJ]	8e-J]	.
=38	=38	=38	=38	=38	=38
1r	8E-L	[2B-	[2f	[2g	8r
.	8E-J	.	.	.	8e-
.	8E-L	.	.	.	8e-L
.	16E-L	.	.	.	16e-L
.	[16E-JJ	.	.	.	[16fJJ
.	16E-LL]	8B-L]	8fL]	8gL]	8f]
.	16E-J	.	.	.	.
.	8E-J	8B-J	8fJ	8gJ	4a-
.	8E-L	16r	16r	16r	.
.	.	[16B-KL	[16fKL	[16gKL	.
.	8E-J	8B-J]	8fJ]	8gJ]	8c
=39	=39	=39	=39	=39	=39
1r	8D-L	[2A-	[2d-	[2f	8d-L
.	8D-J	.	.	.	8c
.	16CKL	.	.	.	8d-
.	8D-	.	.	.	.
.	.	.	.	.	8cJ
.	[16D-Jk	.	.	.	.
.	8D-L]	8A-L]	8d-L]	8fL]	4e-
.	8D-J	8A-J	8d-J	8fJ	.
.	16CLL	16r	16r	16r	8cL
.	16D-J	[16A-KL	[16d-KL	[16fKL	.
.	8D-J	8A-J]	8d-J]	8fJ]	8d-J
=40	=40	=40	=40	=40	=40
1r	8D-L	4A-	4d-	8r	8r
.	16D-L	.	.	8a-	8e-
.	16D-JJ	.	.	.	.
.	8D-L	4r	4r	4a-	4e-
.	16D-L	.	.	.	.
.	16D-JJ	.	.	.	.
.	8D-L	8r	8r	8a-L	8e-L
.	16FL	8d-	8e-	8b-	8f
.	16GJJ	.	.	.	.
.	4A-	16r	16r	8a-	8e-
.	.	[16d-KL	[16e-KL	.	.
.	.	8d-J]	8e-J]	8a-J	8e-J
=41	=41	=41	=41	=41	=41
1r	8FFL	8r	8cL	8a-L	8r
.	8FFJ	8cL	8cJ	8a-J	8a-L
.	4r	8c	4r	4r	8a-
.	.	8d-J	.	.	8b-J
.	8D-L	8d-L	8fL	8a-L	8b-L
.	8D-J	8c	8fJ	8a-J	8a-
.	4r	8c	4r	4r	8a-
.	.	[8e-J	.	.	[8ccJ
=42	=42	=42	=42	=42	=42
1r	8AA-L	8e-L]	8e-L	8a-L	8ccL]
.	8AA-J	8c	8e-J	8a-J	8a-
.	4r	8c	4r	4r	8a-
.	.	8e-J	.	.	8ccJ
.	8E-L	8d-L	8fL	8gL	8b-L
.	8E-J	8cJ	8fJ	8gJ	8a-J
.	16r	16cKL	16r	16r	16a-KL
.	8.E-	8.d-J	8.f	8.g	8.b-J
=43	=43	=43	=43	=43	=43
1r	8FFL	8r	8cL	8a-L	8r
.	8FFJ	8cL	8cJ	8a-J	8a-L
.	4r	8c	4r	4r	8a-
.	.	8d-J	.	.	8b-J
.	8D-L	8d-L	8fL	8a-L	8b-L
.	8D-J	8c	8fJ	8a-J	8a-
.	4r	8c	4r	4r	8a-
.	.	[8e-J	.	.	[8ccJ
=44	=44	=44	=44	=44	=44
1r	8AA-L	8e-L]	8e-L	8a-L	8ccL]
.	8AA-J	8c	8e-J	8a-J	8a-
.	4r	8c	4r	4r	8a-
.	.	8gJ	.	.	8ee-J
.	8E-L	8fL	8fL	8gL	8dd-L
.	8E-J	8e-J	8fJ	8gJ	8ccJ
.	16r	16d-KL	16r	16r	16b-KL
.	8.E-	8.cJ	8.f	8.b-	8.a-J
=45	=45	=45	=45	=45	=45
1r	8FFL	2c	2e-	2a-	8r
.	8FFJ	.	.	.	8ee-L
.	8.FFL	.	.	.	8ee-
.	.	.	.	.	8ffJ
.	[16D-Jk	.	.	.	.
.	16D-LL]	2c	2f	2a-	4ee-
.	16D-J	.	.	.	.
.	8D-J	.	.	.	.
.	16D-LL	.	.	.	16ccLL
.	16D-J	.	.	.	16b-J
.	8D-J	.	.	.	8a-J
=46	=46	=46	=46	=46	=46
1r	8AA-L	2c	2e-	2a-	8r
.	8AA-J	.	.	.	8ee-L
.	8AA-L	.	.	.	8ee-
.	16AA-L	.	.	.	8ffJ
.	16DnJJ	.	.	.	.
.	8E-L	2e-	2g	2b-	4ee-
.	8E-J	.	.	.	.
.	16DLL	.	.	.	16ccLL
.	16E-J	.	.	.	16b-
.	8E-J	.	.	.	16a-
.	.	.	.	.	16a-JJ
=47	=47	=47	=47	=47	=47
1r	8GG-XL	1g-X	1b-	1dd-	8b-L
.	8GG-	.	.	.	8a-
.	8GG-	.	.	.	8a-
.	[8GG-J	.	.	.	8cc-XJ
.	16GG-LL]	.	.	.	8b-L
.	16GG-J	.	.	.	.
.	8GG-J	.	.	.	8a-J
.	16GG-LL	.	.	.	[4b-
.	16GG-J	.	.	.	.
.	8GG-J	.	.	.	.
=48	=48	=48	=48	=48	=48
1r	16E-LL	1g	1b-	1ee-	1b-]
.	16E-	.	.	.	.
.	16E-	.	.	.	.
.	16E-JJ	.	.	.	.
.	8E-L	.	.	.	.
.	16E-L	.	.	.	.
.	[16E-JJ	.	.	.	.
.	16E-LL]	.	.	.	.
.	16E-J	.	.	.	.
.	8E-J	.	.	.	.
.	4E-	.	.	.	.
=49	=49	=49	=49	=49	=49
1r	8AA-L	2e-	2a-	2cc	2a-
.	8AA-J	.	.	.	.
.	8AA-L	.	.	.	.
.	16AA-L	.	.	.	.
.	[16E-JJ	.	.	.	.
.	16E-LL]	16r	16r	16r	8gL
.	16E-J	16d-KL	16gKL	16b-KL	.
.	8E-J	8d-J	8gJ	8b-J	16fL
.	.	.	.	.	[16gJJ
.	16DnLL	4d-	4g	4b-	16gKL]
.	16E-J	.	.	.	8b-
.	8E-J	.	.	.	.
.	.	.	.	.	16a-Jk
=50	=50	=50	=50	=50	=50
1r	8BB-L	4d-	4g	4b-	8r
.	8BB-J	.	.	.	8b-
.	8.BB-L	[8d-L	[8gL	[8b-L	8.b-L
.	.	16d-L]	16gL]	16b-L]	.
.	[16D-Jk	16fJJ	16a-JJ	16dd-JJ	16a-Jk
.	16D-LL]	16r	16r	16r	8b-L
.	16D-	16fKL	16a-KL	16dd-KL	.
.	16F	8fJ	8a-J	8dd-J	16ccL
.	16GJJ	.	.	.	[16b-JJ
.	4A-	4f	4a-	4dd-	16b-KL]
.	.	.	.	.	8.a-J
=51	=51	=51	=51	=51	=51
1r	8AA-L	4e-	4a-	4cc	8ee-L
.	8AA-J	.	.	.	16ee-L
.	.	.	.	.	[16ee-JJ
.	8AA-L	[8e-L	[8a-L	[8ccL	16ee-KL]
.	.	.	.	.	[8a-
.	16AA-L	16e-L]	16a-L]	16ccL]	.
.	[16E-JJ	16d-JJ	16gJJ	16b-JJ	16a-Jk]
.	16E-LL]	16r	16r	16r	8ee-L
.	16E-J	16d-KL	16gKL	16b-KL	.
.	8E-J	8d-J	8gJ	8b-J	16ee-L
.	.	.	.	.	[16ee-JJ
.	16DnLL	4d-	4g	4b-	16ee-KL]
.	16E-J	.	.	.	[8a-
.	8E-J	.	.	.	.
.	.	.	.	.	16a-Jk]
=52	=52	=52	=52	=52	=52
1r	8BB-L	2d-	2g	2b-	8ee-L
.	8BB-J	.	.	.	16ee-L
.	.	.	.	.	[16ee-JJ
.	8BB-L	.	.	.	8ee-L]
.	16BB-L	.	.	.	8ccJ
.	[16D-JJ	.	.	.	.
.	8D-L]	4B-	4f	[8ee-L	16b-KL
.	.	.	.	.	8a-
.	8D-J	.	.	16ee-L]	.
.	.	.	.	[16dd-JJ	16a-Jk
.	16r	16r	16r	8dd-L]	4r
.	8.D-	8.d-	8.g	.	.
.	.	.	.	16ccL	.
.	.	.	.	16dd-JJ	.
=53	=53	=53	=53	=53	=53
1r	8AA-L	4e-	4a-	2cc	4.a-
.	8AA-J	.	.	.	.
.	8AA-L	[8e-L	[8a-L	.	.
.	16AA-L	16e-L]	16a-L]	.	16a-LL
.	[16E-JJ	16d-JJ	16gJJ	.	[16gJJ
.	16E-LL_	16r	16r	16r	16gKL]
.	16E-J]	16d-KL	16gKL	16b-KL	8f
.	8GGJ	8d-J	8gJ	8b-J	.
.	.	.	.	.	[16gJk
.	8AA-L	4d-	4g	4b-	16gKL]
.	.	.	.	.	8b-
.	8AAnJ	.	.	.	.
.	.	.	.	.	16a-Jk
=54	=54	=54	=54	=54	=54
1r	8BB-L	4d-	4g	4b-	8r
.	8BB-J	.	.	.	8b-
.	8BB-L	[8d-L	[8gL	[8b-L	8.b-L
.	16BB-L	16d-L]	16gL]	16b-L]	.
.	[16D-JJ	16fJJ	16a-JJ	16dd-JJ	16a-Jk
.	16D-LL]	16r	16r	16r	8b-L
.	16D-J	16fKL	16a-KL	16dd-KL	.
.	8D-J	8fJ	8a-J	8dd-J	16ccL
.	.	.	.	.	[16b-JJ
.	16CLL	4f	4a-	4dd-	16b-KL]
.	16D-J	.	.	.	8a-
.	8D-J	.	.	.	.
.	.	.	.	.	16e-Jk
=55	=55	=55	=55	=55	=55
1r	8AA-L	4e-	4a-	4cc	8ee-L
.	8AA-J	.	.	.	16ee-L
.	.	.	.	.	[16ee-JJ
.	8AA-L	[8e-L	[8a-L	[8ccL	16ee-KL]
.	.	.	.	.	8a-
.	16AA-L	16e-L]	16a-L]	16ccL]	.
.	[16E-JJ	16d-JJ	16gJJ	16b-JJ	16a-Jk
.	16E-LL]	16r	16r	16r	8ee-L
.	16E-J	16d-KL	16gKL	16b-KL	.
.	8GGJ	8d-J	8gJ	8b-J	16ee-L
.	.	.	.	.	[16ee-JJ
.	8AA-L	4d-	4g	4b-	16ee-KL]
.	.	.	.	.	8a-
.	8AAnJ	.	.	.	.
.	.	.	.	.	16a-Jk
=56	=56	=56	=56	=56	=56
1r	8BB-L	2d-	2g	2b-	8ee-L
.	16BB-L	.	.	.	16ee-L
.	16BB-JJ	.	.	.	[16ee-JJ
.	8.BB-L	.	.	.	16ee-KL]
.	.	.	.	.	8cc
.	[16D-Jk	.	.	.	[16b-Jk
.	8D-L]	4B-	4f	4a-	16b-KL]
.	.	.	.	.	8a-
.	8FJ	.	.	.	.
.	.	.	.	.	[16a-Jk
.	4D-	4d-	4g	4b-	16a-LL]
.	.	.	.	.	16b-J
.	.	.	.	.	8a-J
=57	=57	=57	=57	=57	=57
1r	1D-	2.f	2.a-	2.dd-	4r
.	.	.	.	.	8b-L
.	.	.	.	.	16ccL
.	.	.	.	.	16b-JJ
.	.	.	.	.	16r
.	.	.	.	.	[8.a-
.	.	4r	4r	4r	4a-]
=58	=58	=58	=58	=58	=58
1r	8FFL	4A-	4c	4f	8r
.	8FFJ	.	.	.	8a-
.	8FFL	[8A-L	[8cL	[8fL	8a-L
.	16FFL	16A-L]	16cL]	16fL]	16a-L
.	16EEnJJ	16A-JJ	16cJJ	16fJJ	[16b-JJ
.	16FFLL	16r	16r	16r	8b-]
.	16FFJ	[16A-KL	[16cKL	[16fKL	.
.	8FFJ	8A-J]	8cJ]	8fJ]	4.cc
.	8FFL	4A-	4c	4f	.
.	8FFJ	.	.	.	.
=59	=59	=59	=59	=59	=59
1r	8D-L	4A-	4d-	4f	8r
.	8D-J	.	.	.	8a-
.	16CLL	[8A-L	[8d-L	[8fL	8a-L
.	16D-	.	.	.	.
.	16D-	16A-L]	16d-L]	16fL]	16a-L
.	[16D-JJ	16A-JJ	16d-JJ	16fJJ	[16b-JJ
.	16D-LL]	16r	16r	16r	8b-]
.	16D-J	[16A-KL	[16d-KL	[16fKL	.
.	8D-J	8A-J]	8d-J]	8fJ]	4cc
.	16CLL	4A-	4d-	4f	.
.	16D-J	.	.	.	.
.	8D-J	.	.	.	8e-
=60	=60	=60	=60	=60	=60
1r	8AA-L	4c	4e-	2r	8e-L
.	8AA-J	.	.	.	8e-J
.	8AA-L	[8cL	[8e-L	.	4e-
.	16AA-L	16cL]	16e-L]	.	.
.	16GGJJ	16cJJ	16e-JJ	.	.
.	16AA-LL	16r	16r	8r	8r
.	16AA-J	[16cKL	[16e-KL	.	.
.	8AA-J	8cJ]	8e-J]	8ccL	8a-L
.	8AA-L	4c	4e-	8cc	8a-
.	8AA-J	.	.	[8b-J	[8gJ
=61	=61	=61	=61	=61	=61
1r	8EE-L	4B-	4d-	8b-L]	8gL]
.	8EE-J	.	.	8g	8e-
.	8GGL	[8B-L	[8d-L	8g	8e-
.	16EE-L	16B-L]	16d-L]	[8gJ	[8e-J
.	[16GGJJ	16B-JJ	16d-JJ	.	.
.	16GGLL]	8r	8r	8gL]	8e-L]
.	16GGJ	.	.	.	.
.	8AA-J	8d-	8d-	8e-J	8cJ
.	4BB-	16r	16r	16gKL	16e-KL
.	.	[16d-KL	[16d-KL	8.a-J	8.fJ
.	.	8d-J]	8d-J]	.	.
=62	=62	=62	=62	=62	=62
1r	8FL	4A-	4c	4f	8r
.	8FJ	.	.	.	8a-L
.	8FL	[8A-L	[8cL	[8fL	8a-
.	16FL	16A-L]	16cL]	16fL]	8a-J
.	16E-JJ	16A-JJ	16cJJ	16fJJ	.
.	8FL	16r	16r	16r	8a-
.	.	[16A-KL	[16cKL	[16fKL	.
.	8E-	8A-J]	8cJ]	8fJ]	4.cc
.	8D-	4A-	4c	4f	.
.	8CJ	.	.	.	.
=63	=63	=63	=63	=63	=63
1r	8D-L	4A-	4d-	4f	8r
.	8D-J	.	.	.	8a-
.	16CLL	[8A-L	[8d-L	[8fL	8a-L
.	16D-	.	.	.	.
.	16D-	16A-L]	16d-L]	16fL]	16a-L
.	[16D-JJ	16A-JJ	16d-JJ	16fJJ	[16a-JJ
.	16D-LL]	16r	16r	16r	8a-]
.	16D-J	[16A-KL	[16d-KL	[16fKL	.
.	8D-J	8A-J]	8d-J]	8fJ]	4cc
.	8CL	4A-	4d-	4f	.
.	8D-J	.	.	.	8b-
=64	=64	=64	=64	=64	=64
1r	16DnKL	8gL	4d-	4g	8b-L
.	8E-	.	.	.	.
.	.	8gJ	.	.	8b-J
.	16E-Jk	.	.	.	.
.	8E-L	[4g	[8d-L	[8gL	[4b-
.	16E-L	.	16d-L]	16gL]	.
.	[16GJJ	.	16d-JJ	16gJJ	.
.	16GLL]	8gL]	16r	16r	8b-L]
.	16GJ	.	[16d-KL	[16gKL	.
.	8A-J	8g	8d-J]	8gJ]	8b-
.	8AnL	8g	4d-	4g	8b-
.	8B-J	8a-J	.	.	8ccJ
=65	=65	=65	=65	=65	=65
1r	8E-L	8.b-L	4d-	4g	8.dd-L
.	8E-J	.	.	.	.
.	.	[16a-Jk	.	.	[16ccJk
.	16D-LL	8a-L]	4d-	4g	8ccL]
.	16E-	.	.	.	.
.	16E-	8gJ	.	.	8dd-J
.	[16D-JJ	.	.	.	.
.	8D-L]	2g	16r	16r	2ee-
.	.	.	[16d-KL	[16gKL	.
.	8E-	.	8d-J]	8gJ]	.
.	8G	.	4d-	4g	.
.	8E-J	.	.	.	.
=66	=66	=66	=66	=66	=66
1r	8FFL	2c	2f	2a-	1r
.	8FFJ	.	.	.	.
.	8FFL	.	.	.	.
.	16FFL	.	.	.	.
.	[16D-JJ	.	.	.	.
.	8D-L]	2d-	2f	2a-	.
.	16D-L	.	.	.	.
.	16D-JJ	.	.	.	.
.	16CLL	.	.	.	.
.	16D-J	.	.	.	.
.	8D-J	.	.	.	.
=67	=67	=67	=67	=67	=67
1r	8E-L	4.e-	4.g	4.b-	1r
.	8E-J	.	.	.	.
.	16E-LL	.	.	.	.
.	16GJJ	.	.	.	.
.	16r	[8c	[8e-	[8a-	.
.	[16E-	.	.	.	.
.	8E-L]	4c]	4e-]	4a-]	.
.	8D-	.	.	.	.
.	8BB-	4B-	4e-	4g	.
.	8E-J	.	.	.	.
=68	=68	=68	=68	=68	=68
1r	16CKL	1c	1f	1a-	1r
.	8C	.	.	.	.
.	[16FJk	.	.	.	.
.	8FL]	.	.	.	.
.	8FJ	.	.	.	.
.	8D-L	.	.	.	.
.	8D-J	.	.	.	.
.	16CLL	.	.	.	.
.	16D-J	.	.	.	.
.	8D-J	.	.	.	.
=69	=69	=69	=69	=69	=69
1r	1E-	1e-	1f	1b-	1r
=70	=70	=70	=70	=70	=70
1r	2AA-	8r	4r	4r	4.a-
.	.	[8c	.	.	.
.	.	4c]	4e-	8r	.
.	.	.	.	8a-	16a-LL
.	.	.	.	.	[16gJJ
.	2E-	8r	4r	4r	16gKL]
.	.	.	.	.	8f
.	.	[8d-	.	.	.
.	.	.	.	.	[16e-Jk
.	.	4d-]	8r	4b-	16e-KL]
.	.	.	.	.	8d-
.	.	.	8g	.	.
.	.	.	.	.	16cJk
=71	=71	=71	=71	=71	=71
1r	2BB-	8r	4r	4r	8r
.	.	[8d-	.	.	8b-
.	.	4d-]	4f	8r	8.b-L
.	.	.	.	8b-	.
.	.	.	.	.	16a-Jk
.	2D-	8r	4r	4r	8b-L
.	.	[8f	.	.	16ccL
.	.	.	.	.	[16b-JJ
.	.	4f]	8r	4dd-	16b-KL]
.	.	.	.	.	8a-
.	.	.	8a-	.	.
.	.	.	.	.	16e-Jk
=72	=72	=72	=72	=72	=72
1r	2AA-	8r	4r	4r	8ee-L
.	.	[8c	.	.	16ee-L
.	.	.	.	.	[16ee-JJ
.	.	4c]	4e-	8r	16ee-KL]
.	.	.	.	.	8a-
.	.	.	.	8a-	.
.	.	.	.	.	16a-Jk
.	2E-	8r	4r	4r	8ee-L
.	.	[8d-	.	.	16ee-L
.	.	.	.	.	[16ee-JJ
.	.	4d-]	8r	4b-	16ee-KL]
.	.	.	.	.	8.a-J
.	.	.	8g	.	.
=73	=73	=73	=73	=73	=73
1r	2BB-	8r	4r	4r	8ee-L
.	.	[8d-	.	.	16ee-L
.	.	.	.	.	[16ee-JJ
.	.	4d-]	8r	4b-	16ee-KL]
.	.	.	.	.	8cc
.	.	.	8f	.	.
.	.	.	.	.	[16b-Jk
.	2D-	4f	4a-	4dd-	16b-KL]
.	.	.	.	.	8a-
.	.	.	.	.	16a-Jk
.	.	4d-	4f	4a-	4r
=74	=74	=74	=74	=74	=74
1r	2AA-	2c	2e-	4.cc	4.a-
.	.	.	.	16ccLL	16a-LL
.	.	.	.	[16b-JJ	[16gJJ
.	2E-	2d-	2g	16b-KL]	16gKL]
.	.	.	.	8a-	8f
.	.	.	.	[16b-Jk	[16gJk
.	.	.	.	16b-KL]	16gKL]
.	.	.	.	8dd-	8b-
.	.	.	.	16ccJk	16a-Jk
=75	=75	=75	=75	=75	=75
1r	2BB-	2d-	2f	8r	8r
.	.	.	.	8dd-	8b-
.	.	.	.	8.dd-L	8.b-L
.	.	.	.	16ccJk	16a-Jk
.	2D-	2f	2a-	8dd-L	8b-L
.	.	.	.	16ee-L	16ccL
.	.	.	.	[16dd-JJ	[16b-JJ
.	.	.	.	16dd-KL]	16b-KL]
.	.	.	.	8.ccJ	8a-
.	.	.	.	.	16e-Jk
=76	=76	=76	=76	=76	=76
1r	2AA-	2e-	2a-	2cc	8ee-L
.	.	.	.	.	16ee-L
.	.	.	.	.	[16ee-JJ
.	.	.	.	.	16ee-KL]
.	.	.	.	.	8a-
.	.	.	.	.	16a-Jk
.	2E-	2d-	2g	2b-	8ee-L
.	.	.	.	.	16ee-L
.	.	.	.	.	[16ee-JJ
.	.	.	.	.	16ee-KL]
.	.	.	.	.	8.a-J
=77	=77	=77	=77	=77	=77
1r	8BB-	8d-	8g	8dd-	4r
.	8r	8r	8r	8r	.
.	2r	8e-L	4r	4r	8ee-L
.	.	16B-L	.	.	16b-L
.	.	16cJJ	.	.	16ccJJ
.	.	16B-KL	2r	2r	16b-KL
.	.	8A-	.	.	8a-
.	.	16A-Jk	.	.	16a-Jk
.	4EE-	4r	.	.	4r
=78	=78	=78	=78	=78	=78
1r	8AA-L	4r	4r	4r	4.a-
.	8AA-J	.	.	.	.
.	8AA-L	8a-L	8fL	8ccL	.
.	16AA-L	16a-L	16fL	16ccL	16a-LL
.	[16E-JJ	[16gJJ	[16e-JJ	[16b-JJ	[16gJJ
.	16E-LL]	16gKL]	16e-KL]	16b-KL]	16gKL]
.	16E-J	8f	8e-	8a-	8f
.	8GGJ	.	.	.	.
.	.	[16e-Jk	[16e-Jk	[16gJk	[16e-Jk
.	8AA-L	16e-KL]	16e-KL]	16gKL]	16e-KL]
.	.	8d-	8d-	8f	8d-
.	8AAnJ	.	.	.	.
.	.	16cJk	16cJk	16e-Jk	16cJk
=79	=79	=79	=79	=79	=79
1r	8BB-L	2d-	8r	8r	8r
.	8BB-J	.	8g	8dd-	8b-
.	8BB-L	.	8.gL	8.dd-L	8.b-L
.	16BB-L	.	.	.	.
.	[16D-JJ	.	16a-Jk	16ccJk	16a-Jk
.	16D-LL]	2e-	8gL	8dd-L	8b-L
.	16D-J	.	.	.	.
.	8D-J	.	16gL	16ee-L	16ccL
.	.	.	[16gJJ	[16dd-JJ	[16b-JJ
.	16CKL	.	16gKL]	16dd-KL]	16b-KL]
.	8.D-J	.	8.a-J	8.ccJ	8a-
.	.	.	.	.	16a-Jk
=80	=80	=80	=80	=80	=80
1r	8AA-L	4e-	4a-	2cc	8ee-L
.	8AA-J	.	.	.	16ee-L
.	.	.	.	.	[16ee-JJ
.	8.AA-L	[8e-L	[8a-L	.	16ee-KL]
.	.	.	.	.	8a-
.	.	16e-L]	16a-L]	.	.
.	[16E-Jk	16d-JJ	16gJJ	.	16a-Jk
.	16E-LL]	16r	16r	2b-	8ee-L
.	16E-J	16d-KL	16gKL	.	.
.	8GJ	8d-J	8gJ	.	16ee-L
.	.	.	.	.	[16ee-JJ
.	16A-LL	4d-	4g	.	16ee-KL]
.	16A-J	.	.	.	8.a-J
.	8B-J	.	.	.	.
=81	=81	=81	=81	=81	=81
1r	8BB-L	2d-	2g	2dd-	8ee-L
.	8BB-J	.	.	.	16ee-L
.	.	.	.	.	16ee-JJ
.	8BB-L	.	.	.	8ee-L
.	16BB-L	.	.	.	8ccJ
.	[16D-JJ	.	.	.	.
.	16D-LL]	4B-	4f	[8ee-L	16b-KL
.	16D-J	.	.	.	8a-
.	8D-J	.	.	16ee-L]	.
.	.	.	.	[16dd-JJ	16a-Jk
.	16FFKL	16r	16r	8dd-L]	4r
.	8.D-J	8.d-	8.g	.	.
.	.	.	.	16ccL	.
.	.	.	.	16dd-JJ	.
=82	=82	=82	=82	=82	=82
1r	8AA-L	4e-	4a-	2cc	4.a-
.	8AA-J	.	.	.	.
.	8AA-L	[8e-L	[8a-L	.	.
.	16AA-L	16e-L]	16a-L]	.	16a-LL
.	[16E-JJ	16d-JJ	16gJJ	.	[16gJJ
.	16E-LL]	16r	16r	16b-KL	16gKL]
.	16E-J	16d-KL	16gKL	8a-	8f
.	8GGJ	8d-J	8gJ	.	.
.	.	.	.	[16b-Jk	[16gJk
.	8AA-L	4d-	4g	16b-KL]	16gKL]
.	.	.	.	8dd-	8b-
.	16AAnL	.	.	.	.
.	16AAJJ	.	.	16ccJk	16a-Jk
=83	=83	=83	=83	=83	=83
1r	8BB-L	4d-	4g	8r	8r
.	8BB-J	.	.	8dd-	8b-
.	8BB-L	[8d-L	[8gL	8.dd-L	8.b-L
.	16BB-L	16d-L]	16gL]	.	.
.	[16D-JJ	16fJJ	16a-JJ	16ccJk	16a-Jk
.	16D-LL]	16r	16r	8dd-L	8b-L
.	16D-J	16fKL	16a-KL	.	.
.	8D-J	8fJ	8a-J	16ee-L	16ccL
.	.	.	.	[16dd-JJ	[16b-JJ
.	16CLL	4f	4a-	16dd-KL]	16b-KL]
.	16D-J	.	.	8.ccJ	8a-
.	8D-J	.	.	.	.
.	.	.	.	.	16e-Jk
=84	=84	=84	=84	=84	=84
1r	8AA-L	4e-	4a-	2cc	8ee-L
.	8AA-J	.	.	.	16ee-L
.	.	.	.	.	[16ee-JJ
.	8AA-L	[8e-L	[8a-L	.	16ee-KL]
.	.	.	.	.	8a-
.	16AA-L	16e-L]	16a-L]	.	.
.	[16E-JJ	16d-JJ	16gJJ	.	16a-Jk
.	16E-LL]	16r	16r	2b-	8ee-L
.	16E-J	[16d-KL	[16gKL	.	.
.	8E-J	8d-J]	8gJ]	.	16ee-L
.	.	.	.	.	[16ee-JJ
.	16DnLL	4d-	4g	.	16ee-KL]
.	16E-J	.	.	.	8a-
.	8E-J	.	.	.	.
.	.	.	.	.	16a-Jk
=85	=85	=85	=85	=85	=85
1r	8BB-L	2d-	2g	2b-	8ee-L
.	8BB-J	.	.	.	16ee-L
.	.	.	.	.	[16ee-JJ
.	8BB-L	.	.	.	16ee-KL]
.	.	.	.	.	8cc
.	16BB-L	.	.	.	.
.	[16D-JJ	.	.	.	[16b-Jk
.	16D-LL]	4B-	4f	4a-	16b-KL]
.	16D-	.	.	.	8a-
.	16D-	.	.	.	.
.	16D-JJ	.	.	.	[16a-Jk
.	4D-	4d-	4g	4b-	16a-LL]
.	.	.	.	.	16b-J
.	.	.	.	.	8a-J
=86	=86	=86	=86	=86	=86
1r	1D-	2.f	2.a-	4r	4r
.	.	.	.	8dd-L	8b-L
.	.	.	.	16ee-L	16ccL
.	.	.	.	16dd-JJ	16b-JJ
.	.	.	.	16r	16r
.	.	.	.	[8.cc	[8.a-
.	.	4r	4r	4cc]	4a-]
=87	=87	=87	=87	=87	=87
1r	1AA-;	1c;	1e-;	1b-;	1a-;
==	==	==	==	==	==
*-	*-	*-	*-	*-	*-
